brandFactory_export/1.Light/Oso peluche_1Light.svg

<?xml version="1.0" encoding="UTF-8"?>
<svg width="24px" height="24px" viewBox="0 0 24 24" version="1.1" xmlns="http://www.w3.org/2000/svg" xmlns:xlink="http://www.w3.org/1999/xlink">
    <title>1.Light/Oso peluche_1Light</title>
    <g id="Symbols" stroke="none" stroke-width="1" fill="none" fill-rule="evenodd">
        <g id="1.Light/Oso-peluche_1Light" fill="#5CB615" fill-rule="nonzero">
            <path d="M7.73613445,5.95966387 C7.59495798,5.82857143 7.5210084,5.63361345 7.5210084,5.37815126 C7.5210084,5.12268908 7.59159664,4.92436975 7.73613445,4.79327731 C7.87394958,4.66554622 8.07226891,4.60168067 8.33109244,4.60168067 C8.58655462,4.60168067 8.78823529,4.66554622 8.92605042,4.79327731 C9.06722689,4.92436975 9.14117647,5.12268908 9.14117647,5.37815126 C9.14117647,5.63361345 9.06722689,5.82857143 8.92605042,5.95966387 C8.78823529,6.08739496 8.58655462,6.1512605 8.33109244,6.1512605 C8.07563025,6.1512605 7.87731092,6.08403361 7.73613445,5.95966387 L7.73613445,5.95966387 Z M15.3428571,6.1512605 C15.087395,6.1512605 14.8857143,6.08739496 14.7478992,5.95966387 C14.6033613,5.82857143 14.5327731,5.63361345 14.5327731,5.37815126 C14.5327731,5.12268908 14.6033613,4.92773109 14.7478992,4.79663866 C14.8857143,4.66890756 15.087395,4.60168067 15.3428571,4.60168067 C15.5983193,4.60168067 15.8,4.66554622 15.9378151,4.79663866 C16.0823529,4.92773109 16.1529412,5.12268908 16.1529412,5.37815126 C16.1529412,5.63361345 16.0789916,5.82857143 15.9378151,5.95966387 C15.7966387,6.08739496 15.594958,6.1512605 15.3428571,6.1512605 Z M21.5714286,18.8739496 C21.5781513,18.8067227 21.5714286,18.7193277 21.5680672,18.6857143 C21.5277311,18.1815126 21.389916,17.8487395 21.1142857,17.5932773 C20.8151261,17.3142857 20.3579832,17.1764706 19.7563025,17.1764706 C19.1546218,17.1764706 18.6941176,17.3176471 18.394958,17.5966387 C18.1731092,17.8016807 18.0319328,18.0907563 17.9680672,18.4571429 L17.9411765,18.7226891 C17.9344538,18.7932773 17.9243697,18.8571429 17.9243697,18.9310924 C17.9243697,18.9546218 17.9109244,18.9781513 17.907563,19.0016807 L17.692437,21.0319328 C17.6957983,21.5630252 17.8336134,21.9630252 18.112605,22.2151261 C18.3781513,22.4605042 18.794958,22.5882353 19.3394958,22.5882353 C19.8840336,22.5882353 20.2941176,22.4638655 20.5596639,22.2151261 C20.6403361,22.1411765 20.7008403,22.0537815 20.7579832,21.9596639 C20.7579832,21.9596639 21.3159664,19.805042 21.5243697,19.0722689 C21.5411765,19.0386555 21.5680672,18.9378151 21.5714286,18.8739496 L21.5714286,18.8739496 Z M16.9630252,18.0537815 C17.087395,17.5731092 17.3092437,17.1630252 17.6487395,16.8504202 C17.907563,16.6151261 18.2201681,16.4369748 18.5764706,16.3159664 C18.6168067,15.9495798 18.6504202,15.5731092 18.6504202,15.1731092 C18.6504202,13.3176471 18.2,11.8386555 17.3193277,10.7596639 C17.1445378,10.9815126 16.9798319,11.2067227 16.7714286,11.4016807 C15.6117647,12.4705882 13.9546218,13.0117647 11.8638655,13.0218487 L11.8638655,13.0252101 C11.8537815,13.0252101 11.8470588,13.0218487 11.8369748,13.0218487 C11.8302521,13.0218487 11.8235294,13.0252101 11.8134454,13.0252101 L11.8134454,13.0218487 C9.71596639,13.0117647 8.06554622,12.4705882 6.90252101,11.4016807 C6.69747899,11.210084 6.52941176,10.9815126 6.35462185,10.7596639 C5.47394958,11.8386555 5.02352941,13.3176471 5.02352941,15.1731092 C5.02352941,15.5731092 5.05378151,15.9495798 5.09747899,16.3159664 C5.45714286,16.4336134 5.76638655,16.6151261 6.02521008,16.8504202 C6.36470588,17.1630252 6.58319328,17.5731092 6.70756303,18.0537815 C6.73445378,18.1042017 6.75462185,18.1579832 6.76134454,18.2151261 L6.76806723,18.2722689 C6.78151261,18.3327731 6.78151261,18.4 6.79159664,18.4638655 L6.97310924,20.1983193 C8.09243697,21.1764706 9.67226891,21.6605042 11.8067227,21.6605042 L11.8134454,21.6605042 L11.8134454,21.6571429 L11.8638655,21.6571429 L11.8638655,21.6605042 L11.8705882,21.6605042 C14.005042,21.6605042 15.5848739,21.1764706 16.7042017,20.1983193 L16.8890756,18.4638655 C16.8991597,18.4 16.8991597,18.3327731 16.912605,18.2722689 L16.9193277,18.2151261 C16.9159664,18.1579832 16.9394958,18.1042017 16.9630252,18.0537815 L16.9630252,18.0537815 Z M5.55798319,22.2151261 C5.83361345,21.9630252 5.97478992,21.5630252 5.97815126,21.0319328 L5.75966387,19.0016807 C5.75630252,18.9781513 5.74621849,18.9546218 5.74621849,18.9310924 C5.74621849,18.8571429 5.73613445,18.789916 5.72941176,18.7226891 L5.70252101,18.4571429 C5.63529412,18.0907563 5.49747899,17.8016807 5.27563025,17.5966387 C4.97310924,17.3176471 4.51596639,17.1764706 3.91428571,17.1764706 C3.31260504,17.1764706 2.85546218,17.3176471 2.55630252,17.5932773 C2.28067227,17.8487395 2.14285714,18.1848739 2.10252101,18.6857143 C2.09915966,18.7159664 2.09243697,18.8067227 2.09915966,18.8739496 C2.10252101,18.9378151 2.13277311,19.0386555 2.14285714,19.0689076 C2.34789916,19.8016807 2.9092437,21.9563025 2.9092437,21.9563025 C2.96638655,22.0537815 3.0302521,22.1411765 3.10756303,22.2117647 C3.37647059,22.4605042 3.78655462,22.5848739 4.33109244,22.5848739 C4.87563025,22.5848739 5.28907563,22.4605042 5.55798319,22.2151261 Z M2.92605042,12.2991597 C1.3697479,14.0470588 2.5394958,15.3546218 3.11428571,15.8386555 C3.18823529,15.8991597 3.26218487,15.9596639 3.32605042,16.0067227 C3.37647059,16.0504202 3.4605042,16.107563 3.55462185,16.1680672 C3.67563025,16.1579832 3.78655462,16.1411765 3.91092437,16.1411765 C3.94453782,16.1411765 3.97142857,16.1478992 4.00504202,16.1478992 C3.97815126,15.8285714 3.94453782,15.512605 3.94453782,15.1731092 C3.94453782,13.4487395 4.31764706,12.0067227 5.01680672,10.8436975 C4.32436975,11.1932773 3.36638655,11.805042 2.92605042,12.2991597 L2.92605042,12.2991597 Z M5.42352941,4.11428571 C5.72268908,3.12941176 6.20336134,2.28907563 6.90252101,1.64033613 C6.98319328,1.56638655 7.08739496,1.51260504 7.17478992,1.44201681 C6.71092437,1.11932773 5.91092437,0.83697479 5.08067227,1.77478992 C4.16302521,2.80336134 4.75462185,3.5697479 5.18823529,3.93277311 L5.32605042,4.04705882 C5.34957983,4.06386555 5.38991597,4.0907563 5.42352941,4.11428571 L5.42352941,4.11428571 Z M11.8369748,1.03865546 C10.0218487,1.04537815 8.61344538,1.49579832 7.65210084,2.38319328 C6.65714286,3.30756303 6.14957983,4.69915966 6.14957983,6.52436975 C6.14957983,8.34957983 6.65714286,9.73781513 7.65210084,10.6588235 C8.51596639,11.4554622 9.76638655,11.8789916 11.3361345,11.9596639 L11.3361345,7.93277311 C11.0336134,7.85882353 10.7714286,7.73109244 10.5630252,7.53613445 C10.3714286,7.36134454 10.2201681,7.1394958 10.1495798,6.88067227 C10.1327731,6.81008403 10.1226891,6.72605042 10.1193277,6.59831933 C10.1159664,6.47394958 10.1462185,6.41344538 10.1731092,6.35294118 C10.2571429,6.17142857 10.3680672,6.00672269 10.5159664,5.87226891 C10.8386555,5.57647059 11.2789916,5.42521008 11.8134454,5.40504202 L11.8134454,5.39831933 C11.8235294,5.39831933 11.8302521,5.40168067 11.8369748,5.40168067 C11.8470588,5.40168067 11.8537815,5.39831933 11.8638655,5.39831933 L11.8638655,5.40504202 C12.394958,5.42521008 12.8352941,5.57310924 13.1613445,5.87226891 C13.3092437,6.01008403 13.4168067,6.17142857 13.5042017,6.35294118 C13.5310924,6.41344538 13.5613445,6.47394958 13.5579832,6.59831933 C13.5546218,6.72605042 13.5445378,6.81008403 13.5277311,6.88067227 C13.4571429,7.1394958 13.3092437,7.36134454 13.1176471,7.53613445 C12.9092437,7.73109244 12.6470588,7.85882353 12.3445378,7.93277311 L12.3445378,11.9596639 C13.9109244,11.8756303 15.1647059,11.4521008 16.0252101,10.6588235 C17.0235294,9.73781513 17.5310924,8.34957983 17.5310924,6.52436975 C17.5310924,4.69915966 17.0235294,3.30756303 16.0252101,2.38319328 C15.0605042,1.49579832 13.6521008,1.04201681 11.8369748,1.03865546 Z M18.5966387,1.77142857 C17.7630252,0.833613445 16.9663866,1.11596639 16.502521,1.43865546 C16.589916,1.5092437 16.6907563,1.56302521 16.7714286,1.63697479 C17.4705882,2.28571429 17.9512605,3.12605042 18.2504202,4.11092437 C18.2840336,4.08739496 18.3243697,4.0605042 18.3512605,4.04369748 L18.4890756,3.92941176 C18.9193277,3.5697479 19.5142857,2.80336134 18.5966387,1.77142857 L18.5966387,1.77142857 Z M20.7445378,12.2991597 C20.307563,11.805042 19.3495798,11.1932773 18.6571429,10.8470588 C19.3596639,12.010084 19.7294118,13.4521008 19.7294118,15.1764706 C19.7294118,15.5159664 19.6957983,15.8319328 19.6655462,16.1512605 C19.6991597,16.1512605 19.7260504,16.1445378 19.7596639,16.1445378 C19.887395,16.1445378 19.9983193,16.1613445 20.1159664,16.1714286 C20.2067227,16.1109244 20.2907563,16.0537815 20.3445378,16.010084 C20.4084034,15.9596639 20.4857143,15.8991597 20.5596639,15.8420168 C21.1344538,15.3546218 22.3008403,14.0436975 20.7445378,12.2991597 L20.7445378,12.2991597 Z M22.6571429,18.7798319 C22.6571429,18.7798319 22.6571429,18.8537815 22.6605042,18.8537815 C22.6605042,18.8537815 22.6571429,18.9546218 22.6436975,19.0184874 C22.6302521,19.112605 22.5831933,19.2941176 22.5798319,19.3176471 L21.7865546,22.2957983 C21.7831933,22.3058824 21.7731092,22.312605 21.7697479,22.3226891 C21.7596639,22.3495798 21.7596639,22.3798319 21.7428571,22.4067227 C21.6319328,22.6151261 21.4840336,22.8033613 21.3159664,22.9579832 C20.8386555,23.3983193 20.1764706,23.6201681 19.3428571,23.6201681 C18.5058824,23.6201681 17.8436975,23.3983193 17.3663866,22.9613445 C16.9798319,22.6084034 16.7445378,22.1310924 16.6571429,21.5462185 L16.6571429,21.5428571 C15.4235294,22.312605 13.8470588,22.6957983 11.8672269,22.6957983 L11.8033613,22.6957983 C9.82352941,22.6957983 8.25042017,22.312605 7.01344538,21.5428571 L7.01344538,21.5462185 C6.92268908,22.1277311 6.6907563,22.605042 6.30084034,22.9613445 C5.82689076,23.3983193 5.16134454,23.6201681 4.32773109,23.6201681 C3.49411765,23.6201681 2.82857143,23.3983193 2.35462185,22.9579832 C2.18655462,22.8 2.03865546,22.6151261 1.92773109,22.4067227 C1.91092437,22.3798319 1.91092437,22.3495798 1.90084034,22.3226891 C1.89747899,22.312605 1.88403361,22.3058824 1.88403361,22.2957983 L1.0907563,19.3176471 C1.08403361,19.297479 1.04369748,19.112605 1.02689076,19.0184874 C1.01344538,18.9512605 1.01008403,18.8537815 1.01008403,18.8537815 L1.01008403,18.7798319 C1.02689076,17.9294118 1.28907563,17.3277311 1.79663866,16.8504202 C1.94453782,16.7159664 2.1092437,16.605042 2.2907563,16.507563 C1.05042017,15.3983193 0.371428571,13.5697479 2.10252101,11.6268908 C2.82521008,10.8168067 4.71764706,9.72436975 5.52436975,9.55966387 C5.54789916,9.55630252 5.62857143,9.53277311 5.62857143,9.53277311 C5.26890756,8.67563025 5.06722689,7.66722689 5.06722689,6.52436975 C5.06722689,6.02689076 5.10756303,5.56302521 5.17478992,5.11932773 C5.11092437,5.11260504 5.04369748,5.10588235 4.98655462,5.07563025 C4.95630252,5.05882353 4.89915966,5.02857143 4.87563025,5.00840336 C4.78823529,4.95462185 4.69747899,4.88739496 4.63697479,4.84033613 L4.47226891,4.70588235 C3.56470588,3.94621849 2.96638655,2.54453782 4.25042017,1.09915966 C5.54117647,-0.349579832 7.07058824,0 7.99159664,0.736134454 C8.02521008,0.766386555 8.0487395,0.8 8.07226891,0.833613445 C9.0907563,0.295798319 10.3378151,0.0100840336 11.810084,0.00336134454 L11.810084,0 L11.8605042,0 L11.8605042,0.00336134454 C13.3327731,0.0100840336 14.5764706,0.299159664 15.5983193,0.833613445 C15.6218487,0.8 15.6453782,0.76302521 15.6789916,0.736134454 C16.6,0 18.1294118,-0.346218487 19.4201681,1.09915966 C20.707563,2.54453782 20.1058824,3.94285714 19.2016807,4.70588235 L19.0369748,4.84033613 C18.9798319,4.88739496 18.8890756,4.95462185 18.8016807,5.00840336 C18.7747899,5.02857143 18.7210084,5.05882353 18.6907563,5.07563025 C18.6336134,5.10252101 18.5663866,5.1092437 18.502521,5.11932773 C18.5697479,5.56302521 18.610084,6.02689076 18.610084,6.52436975 C18.610084,7.66722689 18.405042,8.67563025 18.0487395,9.53277311 C18.0487395,9.53277311 18.1260504,9.55630252 18.1529412,9.55966387 C18.9563025,9.72773109 20.8521008,10.8168067 21.5747899,11.6268908 C23.3058824,13.5697479 22.6268908,15.3983193 21.3865546,16.507563 C21.5647059,16.605042 21.7361345,16.7159664 21.8806723,16.8504202 C22.3815126,17.3277311 22.6403361,17.9327731 22.6571429,18.7798319 L22.6571429,18.7798319 Z" id="Oso-peluche_1Light"></path>
        </g>
    </g>
</svg>

<svg width="24" height="24" viewBox="0 0 24 24" xmlns="http://www.w3.org/2000/svg"><path d="M7.736 5.96c-.141-.131-.215-.326-.215-.582 0-.255.07-.454.215-.585.138-.127.336-.191.595-.191.256 0 .457.064.595.191.141.131.215.33.215.585 0 .256-.074.45-.215.582-.138.127-.34.191-.595.191-.255 0-.454-.067-.595-.191zm7.607.191c-.256 0-.457-.064-.595-.191-.145-.131-.215-.326-.215-.582 0-.255.07-.45.215-.581.138-.128.34-.195.595-.195.255 0 .457.064.595.195.144.13.215.326.215.581 0 .256-.074.45-.215.582-.141.127-.343.191-.595.191zm6.228 12.723c.007-.067 0-.155-.003-.188-.04-.504-.178-.837-.454-1.093-.299-.279-.756-.417-1.358-.417-.601 0-1.062.142-1.361.42-.222.206-.363.495-.427.861l-.027.266c-.007.07-.017.134-.017.208 0 .024-.013.047-.016.07l-.216 2.03c.004.532.142.932.42 1.184.266.246.683.373 1.227.373.545 0 .955-.124 1.22-.373.081-.074.142-.161.199-.255 0 0 .558-2.155.766-2.888a.687.687 0 00.047-.198zm-4.608-.82c.124-.48.346-.891.686-1.204.259-.235.571-.413.927-.534.04-.366.074-.743.074-1.143 0-1.855-.45-3.334-1.33-4.413-.175.222-.34.447-.549.642-1.16 1.069-2.816 1.61-4.907 1.62v.003c-.01 0-.017-.003-.027-.003-.007 0-.013.003-.024.003v-.003c-2.097-.01-3.747-.551-4.91-1.62-.206-.192-.374-.42-.548-.642-.881 1.079-1.331 2.558-1.331 4.413 0 .4.03.777.073 1.143.36.118.67.3.928.534.34.313.558.723.683 1.204.026.05.047.104.053.161l.007.057c.014.06.014.128.024.192l.181 1.734c1.12.978 2.7 1.463 4.834 1.463h.006v-.004h.05v.004h.008c2.134 0 3.714-.485 4.833-1.463l.185-1.734c.01-.064.01-.131.024-.192l.006-.057a.341.341 0 01.044-.161zM5.558 22.215c.276-.252.417-.652.42-1.183l-.218-2.03c-.004-.024-.014-.047-.014-.07 0-.075-.01-.142-.017-.21l-.026-.265c-.068-.366-.206-.655-.427-.86-.303-.28-.76-.42-1.362-.42-.601 0-1.059.14-1.358.416-.275.256-.413.592-.453 1.093-.004.03-.01.12-.004.188a.946.946 0 00.044.195c.205.733.766 2.887.766 2.887.057.098.121.185.199.256.268.249.679.373 1.223.373.545 0 .958-.124 1.227-.37zM2.926 12.3c-1.556 1.748-.387 3.056.188 3.54.074.06.148.12.212.168.05.043.135.1.229.161.12-.01.232-.027.356-.027.034 0 .06.007.094.007-.027-.32-.06-.635-.06-.975 0-1.724.373-3.166 1.072-4.33-.693.35-1.65.962-2.09 1.456zm2.498-8.185c.299-.985.78-1.825 1.479-2.474.08-.074.184-.127.272-.198-.464-.323-1.264-.605-2.094.333-.918 1.028-.326 1.795.107 2.158l.138.114.098.067zm6.413-3.075c-1.815.006-3.224.457-4.185 1.344C6.657 3.308 6.15 4.7 6.15 6.524c0 1.826.507 3.214 1.502 4.135.864.796 2.114 1.22 3.684 1.3V7.934a1.698 1.698 0 01-.773-.397 1.388 1.388 0 01-.413-.655 1.356 1.356 0 01-.03-.283c-.004-.124.026-.185.053-.245a1.48 1.48 0 01.343-.48c.323-.297.763-.448 1.297-.468v-.007c.01 0 .017.004.024.004.01 0 .017-.004.027-.004v.007c.531.02.971.168 1.297.467.148.138.256.3.343.48.027.061.057.122.054.246a1.356 1.356 0 01-.03.283c-.07.258-.219.48-.41.655-.209.195-.47.323-.773.397v4.027c1.566-.084 2.82-.508 3.68-1.301.999-.921 1.506-2.31 1.506-4.135 0-1.825-.507-3.216-1.506-4.14-.964-.888-2.373-1.342-4.188-1.345zm6.76.732c-.834-.937-1.63-.655-2.094-.332.087.07.188.124.268.198.7.649 1.18 1.49 1.48 2.474.033-.024.073-.05.1-.067l.138-.115c.43-.36 1.025-1.126.108-2.158zM20.745 12.3c-.437-.494-1.395-1.106-2.088-1.452.703 1.163 1.072 2.605 1.072 4.33 0 .339-.033.655-.063.974.033 0 .06-.006.094-.006.127 0 .238.016.356.026.09-.06.175-.117.229-.16.063-.051.14-.112.215-.169.574-.487 1.74-1.798.185-3.543zm1.912 6.48s0 .075.004.075c0 0-.004.1-.017.164-.014.095-.06.276-.064.3l-.793 2.978c-.004.01-.014.017-.017.027-.01.027-.01.057-.027.084a2.09 2.09 0 01-.427.551c-.477.44-1.14.662-1.973.662-.837 0-1.5-.222-1.977-.659-.386-.353-.621-.83-.709-1.415v-.003c-1.233.77-2.81 1.153-4.79 1.153h-.064c-1.98 0-3.553-.383-4.79-1.153v.003c-.09.582-.322 1.059-.712 1.415-.474.437-1.14.66-1.973.66-.834 0-1.5-.223-1.973-.663a2.145 2.145 0 01-.427-.551c-.017-.027-.017-.057-.027-.084-.004-.01-.017-.017-.017-.027l-.793-2.978a5.408 5.408 0 01-.064-.3c-.014-.067-.017-.164-.017-.164v-.074c.017-.85.28-1.452.787-1.93.148-.134.312-.245.494-.342-1.24-1.11-1.92-2.938-.188-4.881.722-.81 2.615-1.903 3.421-2.067.024-.004.105-.027.105-.027-.36-.857-.562-1.866-.562-3.009 0-.497.04-.961.108-1.405-.064-.006-.131-.013-.188-.043-.03-.017-.088-.047-.111-.068a2.833 2.833 0 01-.239-.168l-.165-.134c-.907-.76-1.506-2.161-.222-3.607C5.541-.35 7.07 0 7.992.736a.54.54 0 01.08.098C9.091.296 10.338.01 11.81.004V0h.05v.003c1.473.007 2.716.296 3.738.83.024-.033.047-.07.081-.097C16.6 0 18.129-.346 19.42 1.1c1.288 1.446.686 2.844-.218 3.607l-.165.134a2.29 2.29 0 01-.346.236c-.057.027-.125.033-.188.043.067.444.107.908.107 1.405 0 1.143-.205 2.152-.561 3.009 0 0 .077.023.104.027.803.168 2.7 1.257 3.422 2.067 1.73 1.943 1.052 3.771-.188 4.88.178.098.35.209.494.343.5.478.76 1.083.776 1.93z" fill="#5CB615" fill-rule="nonzero"/></svg>
